X:1
%
T:Birds are dreaming, The
M:9/8
L:1/8
R:Air
Q:"Slow"
S:Henry Hudson manuscript collection c. 1841 (Dublin, No. 256)
N:Hudson was a Dublin dentist and an early collector. He was
N:music editor of The Citizen or Dublin Monthly Magazine from
N:1841-1843.
F:  http://rarebooks.library.nd.edu/digital/bookreader/MSE_1434-2/#page/7/mode/1up
Z:AK/Fiddler’s Companion
K:Eb
E/F/|GAB c2G =B2d|{d}cCC (C3 C2) E/F/|GFE B2d e2d|
cBG (B3 B2) B/A/|Gc=B cC E/F/ GFE|CED (E3 E2) G/B/|
ccd  efe dc=B|c_BG (A3 A2)B/A/|GFE DB,E/F/ GBA/F/|FEE E3 E2||

